X: 9221
T: Dan Coakley's
R: polka
M: 2/4
K: Gmajor
|:B2 A2|GB d2|ed G>A|Be ed|
B2 AB/A/|GB d/^c/d|ed ef|g2 g2:|
|:ed B2|ed B>d|ed G>A|Be ed|
B2 AB/A/|GB d/^c/d|ed ef|g2 g2:|

